svgs/sharp-solid/landmark-flag.svg

<svg xmlns="http://www.w3.org/2000/svg" viewBox="0 0 512 512"><!--! Font Awesome Pro 6.6.0 by @fontawesome - https://fontawesome.com License - https://fontawesome.com/license (Commercial License) Copyright 2024 Fonticons, Inc. --><path d="M368 0l0 96-96 0 0 32 192 0 32 0 0 64-32 0L48 192l-32 0 0-64 32 0 192 0L240 0l32 0 96 0zM64 224l64 0 0 192 40 0 0-192 64 0 0 192 48 0 0-192 64 0 0 192 40 0 0-192 64 0 0 192 51.1 38.3c.1 .1 .2 .1 .2 .2L512 464l0 15.6c0 .3 0 .5 0 .8l0 31.6-32 0L32 512 0 512l0-31.6c0-.3 0-.5 0-.8L0 464l12.7-9.5c.1-.1 .2-.1 .2-.2L64 416l0-192z"/></svg>

<svg xmlns="http://www.w3.org/2000/svg" viewBox="0 0 512 512"><!--! Font Awesome Pro 6.4.2 by @fontawesome - https://fontawesome.com License - https://fontawesome.com/license (Commercial License) Copyright 2023 Fonticons, Inc. --><path d="M368 0V96H272v32H464h32v64H464 48 16V128H48 240V0h32 96zM64 224h64V416h40V224h64V416h48V224h64V416h40V224h64V416l51.1 38.3c.1 .1 .2 .1 .2 .2L512 464v15.6c0 .3 0 .5 0 .8V512H480 32 0V480.4c0-.3 0-.5 0-.8V464l12.7-9.5c.1-.1 .2-.1 .2-.2L64 416V224z"/></svg>
